!!!COM: Bach, Johann Sebastian
!!!CDT: 1685/03/31-1750/07/28
!!!OTL: Sinfonia 7 in E minor
!!!SCA: BWV 793
**kern	**kern	**kern
*staff3	*staff2	*staff1
*I	*I"	*I"
*clefF4	*clefG2	*clefG2
*k[f#]	*k[f#]	*k[f#]
*e:	*e:	*e:
*M3/4	*M3/4	*M3/4
*MM52	*MM52	*MM52
=1	=1	=1
8EL	2.r	8r
8EEJ	.	8bL
8r	.	8ee
8BL	.	8ff#J
8e	.	[4gg
8dJ	.	.
=2	=2	=2
4.c	2.r	8ggL]
.	.	8ff#
.	.	8aa
8BL	.	8gg
8A	.	8ff#
8cJ	.	8eeJ
=3	=3	=3
4.B	8r	16dd#XLL
.	.	16cc#X
.	8f#L	16b
.	.	16cc#JJ
.	8b	8ddnL
8AL	8cc#XJ	8eeJ
8G	[4dd	[4ff#
8F#J	.	.
=4	=4	=4
4.E	8ddL]	8ff#L]
.	8cc#X	8ee
.	8ee	8gg
8F#L	8dd	8ff#
8G	8cc#	8ee
8EJ	8bJ	8ddJ
=5	=5	=5
[4F#	16a#XLL	8cc#XL
.	16g#X	.
.	16f#	8cc#
.	16g#JJ	.
16F#LL]	8anL	8ff#
16Gn	.	.
16A	8bJ	8ggnJ
16GJJ	.	.
16F#LL	[4ccn	[4aa
16E	.	.
16D#X	.	.
16EJJ	.	.
!!LO:LB:g=original
=6	=6	=6
4D#X	8ccL]	8aaL]
.	8a	8ff#
8r	8cc	8aa
8EL	8b	8gg
8C	8a	8ff#
8AAJ	8gJ	8eeJ
=7	=7	=7
8BBL	4f#	8dd#XL
8B	.	8ff#
8e	8r	8gg
8f#J	8bL	8aa
[4g	8ee	8bb
.	8ddnJ	8ggJ
=8	=8	=8
8gL]	[4cc#X	[4ee
8f#	.	.
8a	8cc#L]	8eeL]
8g	8cc#	8ee
8f#	8dd#	8ff#
8eJ	8eeJ	8ggJ
=9	=9	=9
8d#XL	4.ff#	4aa
8B	.	.
8e	.	[2gg
8dn	8bL	.
8c#X	8ee	.
8BJ	8ddJ	.
=10	=10	=10
4.A#X	4.cc#X	8ggL]
.	.	8ee
.	.	8gg
8BL	8ddL	8ff#
8c#X	8cc#	8ee
8dJ	8bJ	8ddJ
=11	=11	=11
16eLL	4.a#X	4.cc#X
16d	.	.
16e	.	.
16f#JJ	.	.
8gL	.	.
8f#	8bL	8ddL
8e	8cc#X	8ee
8dJ	8ddJ	8ff#J
=12	=12	=12
8c#XL	8eeL	4gg
8B	8ddJ	.
8A#X	4.cc#X	8ff#L
8F#	.	8eeJ
8B	.	[4dd
8AnJ	8f#	.
!!LO:LB:g=original
=13	=13	=13
8GL	2b	8ddL]
8EJ	.	8cc#X
4F#	.	8ee
.	.	8dd
4FF#	4a#X	8cc#
.	.	8bJ
=14	=14	=14
16BBLL	8bL	4b
16F#	.	.
16B	8B	.
16AnJJ	.	.
16GLL	8e	4r
16B	.	.
16G	8f#J	.
16F#JJ	.	.
16ELL	[4g	4r
16B	.	.
16E	.	.
16DJJ	.	.
=15	=15	=15
16CLL	8gL]	2.r
16G	.	.
16E	8f#	.
16DJJ	.	.
16CLL	8a	.
16E	.	.
16C	8g	.
16BBJJ	.	.
16AALL	8f#	.
16BB	.	.
16C	8eJ	.
16AAJJ	.	.
=16	=16	=16
16BBLL	4d#X	8r
16G	.	.
16F#	.	8f#L
16EJJ	.	.
16DnLL	8r	8b
16F#	.	.
16D	8f#	8cc#XJ
16C#XJJ	.	.
16BBLL	16bLL	[4dd
16F#	16a	.
16BB	16g	.
16AAJJ	16f#JJ	.
=17	=17	=17
16GGLL	4.e	8ddL]
16D	.	.
16BB	.	8cc#X
16AAJJ	.	.
16GGLL	.	8ee
16BB	.	.
16GG	8f#L	8dd
16FF#JJ	.	.
16EELL	8g	8cc#
16FF#	.	.
16GG	8eJ	8bJ
16EEJJ	.	.
!!LO:LB:g=original
=18	=18	=18
8FF#L	8c#XL	16a#XLL
.	.	16ff#
8F#	8F#	16ee
.	.	16ddJJ
8A#X	8c#	16cc#XLL
.	.	16ff#
8B	8dJ	16cc#
.	.	16bJJ
8c#X	[4e	16a#LL
.	.	16cc#
8F#J	.	16a#
.	.	16g#XJJ
=19	=19	=19
4B	16eLL]	4f#
.	16gn	.
.	16f#	.
.	16eJJ	.
8r	16dLL	4r
.	16f#	.
8BBL	16d	.
.	16c#XJJ	.
8C#X	16BLL	[4ff#
.	16f#	.
8DJ	16B	.
.	16AJJ	.
=20	=20	=20
4E	4G	16ff#LL]
.	.	16bb
.	.	16gg
.	.	16ff#JJ
8r	4r	16eeLL
.	.	16gg
8F#L	.	16ee
.	.	16ddJJ
8E	[4g	16cc#XLL
.	.	16gg
8DJ	.	16cc#
.	.	16bJJ
=21	=21	=21
4C#X	16gLL]	4a
.	16g	.
.	16e	.
.	16dJJ	.
8r	16c#XLL	4r
.	16e	.
8AAL	16c#	.
.	16BJJ	.
8BB	16ALL	[4ee
.	16e	.
8C#J	16A	.
.	16GJJ	.
=22	=22	=22
!	!	!
4D	4F#	16eeLL]
.	.	16aa
.	.	16ff#
.	.	16eeJJ
8r	4r	16ddLL
.	.	16ff#
8EL	.	16dd
.	.	16cc#XJJ
8D	[4f#	16bLL
.	.	16ff#
8C#XJ	.	16b
.	.	16aJJ
!!LO:LB:g=original
=23	=23	=23
16BBLL	8f#L]	[2.g
16B	.	.
16G	16eL	.
16F#JJ	16dJJ	.
*	*clefF4	*
16ELL	16c#XLL	.
16G	16e	.
16E	16c#	.
16DJJ	16BJJ	.
16C#XLL	8AL	.
16G	.	.
16C#	8BJ	.
16BBJJ	.	.
=24	=24	=24
16AALL	8c#XL	2.g]
16E	.	.
16C#X	16AL	.
16BBJJ	16BJJ	.
16AALL	8c#L	.
16C#	.	.
16AA	8eJ	.
16GGJJ	.	.
16FF#LL	8AL	.
16C#	.	.
16FF#	8c#J	.
16EEJJ	.	.
=25	=25	=25
8DD	8dL	8f#L
8r	16DL	8a
.	16EJJ	.
4r	16F#LL	8dd
.	16D	.
.	16F#	8eeJ
.	16GJJ	.
4r	16ALL	[4ff#
.	16D	.
.	16A	.
.	16BJJ	.
*	*clefG2	*
=26	=26	=26
2.r	16c#XLL	8ff#L]
.	16A	.
.	16c#	8ee
.	16dJJ	.
.	16eLL	8gg
.	16A	.
.	16e	8ff#
.	16f#JJ	.
.	16gLL	8ee
.	16a	.
.	16b	8ddJ
.	16gJJ	.
=27	=27	=27
8r	2.a	16cc#XLL
.	.	16ee
8AAL	.	16aa
.	.	16ggJJ
8D	.	16ff#LL
.	.	16aa
8EJ	.	16ff#
.	.	16eeJJ
[4F#	.	16ddLL
.	.	16aa
.	.	16dd
.	.	16cc#JJ
!!LO:LB:g=original
=28	=28	=28
8F#L]	[2.g	16bLL
.	.	16dd
8E	.	16gg
.	.	16ff#JJ
8G	.	16eeLL
.	.	16gg
8F#	.	16ee
.	.	16ddJJ
8E	.	16cc#XLL
.	.	16gg
8DJ	.	16cc#
.	.	16bJJ
=29	=29	=29
8C#XL	16gLL]	[2a
.	16g	.
8FF#	16f#	.
.	16eJJ	.
8BB	16dLL	.
.	16f#	.
8C#J	16d	.
.	16c#XJJ	.
[4D	[4B	16aLL]
.	.	16a
.	.	16g
.	.	16f#JJ
=30	=30	=30
8DL]	8B]	16gLL
.	.	16e
8C#X	8rc	16a#X
.	.	16bJJ
8E	4r	16cc#XLL
.	.	16f#
8D	.	16cc#
.	.	16ddJJ
8C#	4r	16eeLL
.	.	16ff#
8BBJ	.	16gg
.	.	16eeJJ
*	*clefF4	*
=31	=31	=31
4AA#X	8r	16ff#LL
.	.	16gg
.	8F#L	16ff#
.	.	16eeJJ
4BB	8B	16ddLL
.	.	16ff#
.	8c#XJ	16dd
.	.	16cc#XJJ
8r	[4d	16bLL
.	.	16ffn
8D	.	16b
.	.	16aJJ
=32	=32	=32
8EL	8dL]	16g#XLL
.	.	16f#X
8D	8B	16g#
.	.	16aJJ
8Fn	8d	16bLL
.	.	16g#
8E	8c	16b
.	.	16ccJJ
8D	8B	16ddLL
.	.	16g#
8CJ	8AJ	16dd
.	.	16eeJJ
!!LO:LB:g=original
=33	=33	=33
8BBL	8G#XL	16ffnLL
.	.	16bb
8GG#XJ	8E	16ee
.	.	16ddJJ
4AA	8A	16ccLL
.	.	16ee
.	8BJ	16cc
.	.	16bJJ
8r	[4c	16aLL
.	.	16ee
8C	.	16a
.	.	16gJJ
=34	=34	=34
8DL	8cL]	16f#XLL
.	.	16e
8C	8A	16f#
.	.	16gJJ
8E	8c	16aLL
.	.	16f#
8D	8B	16a
.	.	16bJJ
8C	8A	16ccLL
.	.	16f#
8BBJ	8GnJ	16cc
.	.	16ddJJ
=35	=35	=35
8CL	4.F#	16ee-XLL
!	!	!
.	.	16aa
8AA	.	16ee-
.	.	16ddJJ
8D	.	16ccLL
.	.	16ee-
8EJ	8G	16cc
.	.	16b-XJJ
[4F#	[4A	16aLL
.	.	16cc
.	.	16a
.	.	16gJJ
=36	=36	=36
8F#L]	8AL]	16f#LL
.	.	16e
8E	8G	16d#X
.	.	16eJJ
8A	8c	16f#LL
.	.	16d#
8G	8B	16f#
.	.	16gJJ
8F#	8A	16aLL
.	.	16d#
8EJ	8GJ	16a
.	.	16bJJ
=37	=37	=37
4D#X	4F#	8ccL
.	.	8b
8r	4r	8ee
8BBL	.	8ff#J
*	*clefG2	*
8E	8r	[4gg
8DnJ	8b	.
=38	=38	=38
[2.C	8eeL	8ggL]
.	8ddn	8ff#
.	8cc	8aa
.	8b	8gg
.	8a	8ff#
.	8gJ	8eeJ
!!LO:LB:g=original
=39	=39	=39
16CLL]	8f#L	4dd#X
!	!	!
16c	.	.
16B	8cc	.
16AJJ	.	.
16G#XLL	8b	[2ddn
16B	.	.
16G#	8a	.
16F#JJ	.	.
16ELL	8g#X	.
16B	.	.
16E	8bJ	.
16DJJ	.	.
=40	=40	=40
16CLL	4e	8ddL]
16Fn	.	.
16E	.	8g#X
16DJJ	.	.
16CLL	8f#L	8a
16E	.	.
16C	8g#X	8bJ
16BBJJ	.	.
16AALL	8a	[4cc
16E	.	.
16AA	8eJ	.
16GGJJ	.	.
=41	=41	=41
16FF#LL	8aL	8ccL]
16D	.	.
16C	8b	8ee
16BBJJ	.	.
16AALL	8cc	8aa
16C	.	.
16AA	8eeJ	8bbJ
16GGJJ	.	.
16FF#LL	8aaL	[4ccc
16C	.	.
16FF#	8ggJ	.
16EEJJ	.	.
=42	=42	=42
4DD#X	4ff#	16cccLL]
.	.	16bb
.	.	16aa
.	.	16ggJJ
4r	4r	16ff#LL
.	.	16aa
.	.	16dd#X
.	.	16eeJJ
4r	16r	[4ff#
.	16ccLL	.
.	16b	.
.	16aJJ	.
=43	=43	=43
4EE	4g	16ff#LL]
.	.	16bb
.	.	16dd#X
.	.	16eeJJ
2BB	8f#L	4ee
.	8gJ	.
.	4a	4dd#
=44	=44	=44
2.EE;	2.g#X;	2.ee;
==	==	==
*-	*-	*-
!!!system-decoration: [(s1,s2,s3)]
!!!URL-pdf: https://vmirror.imslp.org/files/imglnks/usimg/5/55/IMSLP396136-PMLP03268-Bach,_Johann_Sebastian-Werke_Breitkopf_Band_3_02_BWV_787-801.pdf#page=10 Bach-Gesellschaft Ausgabe, Band 3 (pp.19-42) Leipzig: Breitkopf und Härtel, 1853. Plate B.W. III.
!!!URL-youtube: https://www.youtube.com/watch?v=Lao8x1bHWEg&t=683s Malinowski
!!!SMS: Bach-Gesellschaft Ausgabe, Band 3 (pp.19-42) Leipzig: Breitkopf und Härtel, 1853. Plate B.W. III.
!!!ONB: Open-score format
!!!ENC: Craig Stuart Sapp
!!!END: 2024/03/28
!!!EED: Craig Stuart Sapp
!!!EEV: 2024/03/28
!!!title: @{OTL} (@{SCA})
!!!filter-keyboard: sab2gs
!!!voices: 3
!!!AGN: polyphony
!!!AST: baroque
!!!AMT: simple triple
!!!AIN: cemb; clavi
